X: 209
T:Tam Lin
C:Davey Arthur?
M:4/4
F:http://blackrosetheband.googlepages.com/ABCTUNES.ABC May 2009
R:
K:Dm
|:A,2 DA, FA,DA,|B,2 DB, FB,DB,|C2EC GCEC|FEDF EDCG,|
A,2 DA, FA,DA,|B,2 DB, FB,DB,|C2EC GCEC|1FEDC D2z2 :|2FEDC D2Ac||
|:dA (3ABA FADA|dA (3AAA FADA|cG (3GGG EGGG|cG (3GGG cdec|
dA (3AAA FDDA|dA (3AAA FEDC|B,2 B,C D2 DE|1 FEFE D2Ac :|2 FEFE D2z2||

